!!!OTL: ES WOLLT EIN MAEDCHEN DIE LAEMMELEIN HUETEN
!!!ARE: Europa, Mitteleuropa, Deutschland, Unter - Lahnkreis, Kreis Limburg
!!!SCT: E0126B
!!!YEM: Copyright 1995, estate of Helmut Schaffrath.
**kern
*ICvox
*Ivox
*M6/8
*k[f#c#g#]
*A:
{8a
=1
4ee
8ee
4ee
8ff#
=2
4ee
8ee
4cc#}
{8ee
=3
4.dd
4ee
8dd
=4
4.cc#
4r}
{8a
=5
4ee
8ee
4ee
8ff#
=6
4ee
8ee
4cc#}
{8ee
=7
4.dd
4ee
8dd
=8
4.cc#
4r}
{8a
=9
8ff#
8ff#
8ff#
8aa
8gg#
8ff#
=10
8ff#
8ee
8ee
4ee}
{8ee
=11
8dd
8dd
8dd
8ff#
8ee
8dd
=12
8dd
8cc#
8cc#
4cc#}
{8ee
=13
8ee
8ee
8ee
8dd
8dd
8ee
=14
2cc#
8r}
==
!!!AGN: erzaehlendes Volks - Lied, Schalk -, Schelmen - Lied, betrogene Liebe     Ballade ?
!!!ONB: ESAC (Essen Associative Code) Database: ERK1
!!!AMT: compound duple
!!!AIN: vox
!!!EED: Helmut Schaffrath
!!!EEV: 1.0
*-
!!!title: @{OTL} [@{SCT}]
